X:1
T:The souls of the righteous
T:Stanley Marchant ed. R Bolyard 2016
T:Wisdom III. 1,2
T:The souls of the righteous
C:Stanley Marchant
C:ed. R Bolyard 2016
Z:Wisdom III. 1,2
%%score [ ( 1 2 ) ( 3 4 ) ]
L:1/8
M:2/2
K:G
V:1 treble nm="SOPRANO" snm="S."
V:2 treble 
V:3 bass nm="BASS" snm="B."
V:4 bass 
V:1
!p! B4 | B8- | B4!<(! B2!<)! B2 |!>(! e8!>)! | d8- | d2 !tenuto!G2 !tenuto!G2 !tenuto!A2 | %6
w: The|souls|_ of the|right-|eous|_ are in the|
w: ||||||
!<(! B8- | B4!<)! ^c4 | !>!f8- | f4!mf! B4- | B2 !tenuto!B2 !tenuto!B2 !tenuto!B2 | %11
w: hand|_ of|God,|_ and|_ there shall no|
w: |||||
!<(! (c4!<)! e4- |!>(! e4)!>)! d4- | d4!f! d4 | (g4 e4 |!>(! c4) B4 | (A8!>)! | G8) |!p! E8- | %19
w: tor- *|* ment,|_ no|tor- *|* ment|touch|_|them.|
w: ||||||||
 E4 z4 | z8 | z8 | z4!mf! (A4 |!<(! B4)!<)! ^c4 | d6 D2 | d4 c4 | _B8 | G8 |!<(! _E8-!<)! | E4 G4 | %30
w: _|||In|_ the|sight of|the un-|wise,|they|seem'd|_ to|
w: |||||||||||
!>(! (G8 | F8-!>)! | F4) z4 | z4!p! A4 | B4 B4- | B4 B4 |!<(! (e8-!<)! | e8 |!>(! d8-!>)! | %39
w: die,|_||But|they are|_ in|peace,|_||
w: |||||||||
 d4) z4 |!p! z8 | z4!p!!<)!!<(! (e4- |!>(! e4!>)! d4) | B4 (A2 G2) |!>(! (B8!>)! | F4)!p! F4 | E8 | %47
w: |||they *|are in _|peace,|_ they|are|
w: ||They|_ _|||||
 D8 | (B,8 | C8- | !breath!C8) |!pp! E8 | (G8- | G8 |!>(! !fermata!D8)!>)! |] %55
w: in|peace,|_||in|peace.|_||
w: ||||||||
V:2
 B,4 | B8 | A4 G2 G2 | G8 | G8- | G2 !tenuto!G2 !tenuto!G2 !tenuto!A2 | (B8 | A4) G4 | !>!F8- | %9
 F4 B4- | B2 !tenuto!B2 !tenuto!B2 !tenuto!B2 | (c4 F4 | G4) G4- | G4 G4 | G8- | G4 G4 | (G4 =F4 | %17
 E4 D4) | ^C8- | C4 x4 | x8 | x8 | x4 (A4- | A2 G2) (=F2 E2) | D6 D2 | _B4 A4 | G8 | C8 | C8- | %29
 C4 _E4 | D8- | D8- | D4 x4 | x4 F4 | G4 G4- | G4 G4 | (c8- | c8 | B8- | B4) x4 | x8 | F8 | G8 | %43
 F4 E4 | D8- | D4 D4 | C8 | (B,4 A,4) | G,8- | G,8- | G,8 | C8 | (C8- | C8 | !fermata!B,8) |] %55
V:3
!p! B,4 | B,8- | B,4!<(! B,2!<)! B,2 |!>(! C8!>)! | B,8- | %5
w: |||||
w: |||||
 B,2 !tenuto!G,2 !tenuto!G,2 !tenuto!A,2 |!<(! B,8- | B,4!<)! E4 | !>!^D8- | D4!mf! B,4- | %10
w: |||||
w: |||||
 B,2 !tenuto!B,2 !tenuto!B,2 !tenuto!B,2 |!<(! C8!<)! |!>(! B,4!>)! B,4- | B,4!f! B,4 | C8- | %15
w: |||||
w: |||||
!>(! C4 C4 | (C8!>)! | B,8) |!p! A,8- | A,4!mf! z4 |!<(! z4!mf!!<(! (A,4!<)! | B,4)!<)! ^C4 | %22
w: |||||||
w: |||||In|_ the|
!>(! D8-!>)! | D4 A,2 G,2 | =F,4 ^F,4 | G,4 A,4 | D8 | G,8 |!<(! G,8-!<)! | G,4 C4 |!>(! _B,8 | %31
w: |||||||||
w: sight,|_ _ _||||||||
 A,8-!>)! | A,4 z4 | x8 | x8 | x8 | x8 | x8 | x8 | z4!p! B,4 | E8 | C8 | B,8 | B,4 B,4 | %44
w: |||||||||||||
w: ||||||||In|peace|_|they||
!>(! B,8-!>)! | B,4!p! B,4 | G,8 | F,8 | G,8- | G,8- | G,8 |!pp! G,8 | E,8- | E,8 | %54
w: ||||||||||
w: ||||||||||
!>(! !fermata!D,8!>)! |] %55
w: |
w: |
V:4
 B,,4 | (B,4 G,4 | F,4) E,2 E,2 | (C,4 E,4) | G,8- | G,2 !tenuto!G,2 !tenuto!G,2 !tenuto!A,2 | %6
w: ||||||
 (B,4 G,4 | F,4) E,4 | !>!B,8- | B,4 B,4- | B,2 !tenuto!B,2 !tenuto!B,2 !tenuto!B,2 | (C4 A,4 | %12
w: ||||||
 B,4) B,4- | B,4 G,4 | E,8- | E,4 E,4 | (=F,8 | G,8) | A,8- | A,4 E,2 E,2 | G,8- | G,4 =F,2 E,2 | %22
w: |||||||* In the|sight,|_ _ _|
 =F,8 | E,4 A,,4 | _B,,4 D,4 | E,4 F,4 | G,8 | _E,8 | C,8 | _B,,4 A,,4 | D,8- | D,8- | D,4 x4 | %33
w: |* the|sight of|||||||||
 z8 | z8 | z8 | z8 | z8 | z8 | x4 G,4 | (C8 | A,8) | B,8 | D,4 E,4 | B,,8- | B,,4 B,,4 | C,8 | %47
w: ||||||||||||||
 D,8 | E,8- | E,8- | !breath!E,8 | C,8 | G,,8- | G,,8- | !fermata!G,,8 |] %55
w: ||||||||

